X: 31256
T: Paddy Fitzgerald's
R: waltz
M: 3/4
K: Gmajor
d/d/d|e2 d2 B2|G2 A2 G2|E2 G2 E2|D6|
G2 B2 e2|d2 B2 G2|A6|A4 d/d/d|
e2 d2 B2|G2 A2 G2|E2 G2 g2|e6|
d2 B2 G2|A2 E2 F2|G6|G4z2||
DG Bd B2|DG Bd B2|EG ce c2|EG ce c2|
DG Bd B2|DG Bd B2|DF Ac A2|DF Ac A2|
DG Bd B2|DG Bd B2|E2 G2 g2|e6|
d2 B2 G2|A2 E2 F2|G6|G4||

